X:1
T:Adorna thalamum tuum
T:William Byrd (c.1540-1623)
T:Adorna thalamum tuum
T:© Choral Public Domain Library 2010
T:© Choral Public Domain Library 2010
T:© Choral Public Domain Library 2010
T:© Choral Public Domain Library 2010
T:© Choral Public Domain Library 2010
T:© Choral Public Domain Library 2010
C:William Byrd (c.1540-1623)
Z:© Choral Public Domain Library 2010
%%score [ 1 2 3 ]
L:1/8
M:4/4
K:F
V:1 treble nm="Alto" snm="S."
V:2 treble-8 transpose=-12 nm="Tenor" snm="T."
V:3 treble-8 transpose=-12 nm="Tenor" snm="T."
V:1
 [Cd]2 |[M:4/2] F8 B8 | A4 c6 B2 G4 | A4 F4 c8 | A8 F6 G2 | A8 G8 | z4 A4 G2 F2 G4 | A6 B2 c6 B2 | %8
w: |A- dor-|na tha- la- mum|tu- um Si-|on, tu- um|Si- on,|et sus- ci- pe|Re- gem Chri- *|
 A2 G2 A2 F2 G8 | z4 F4 E2 D2 E4 | F6 G2 A2 B2 c4- | c4 B2 A2 G8 | z4 G4 G6 G2 | G4 B4 A8 | %14
w: * * * * stum,|et sus- ci- pe|Re- gem Chri- * *|* * * stum,|Am- ple- cte-|re Ma- ri-|
 G8 z4 B4 | A4 F4 c8 | G8 B6 AG | F2 G2 A2 F2 B8 | A8 c8 | A8 B8 | G8 A8 | D8 E8 | C8 z8 | %23
w: am, quæ|est cæ- le-|stis por- * *||ta: i-|psa e-|nim por-|tat Re-|gem,|
 z4 c8 A4 | B4 G4 A4 F4 | G8 C8 | z4 F6 G2 A4 | B4 F4 z4 A4- | A2 B2 c4 d8- | d4 G4 B6 A2 | %30
w: i- psa|e- nim por- tat|Re- gem|glo- ri- æ,|no- vi, glo-|* ri- æ, no-|* vi lu- mi-|
 G4 c8 F4 | B6 A2 G2 F2 E2 D2 | E4 E4 F8 | A8 F8 | B6 A2 G2 A2 B2 G2 | !fermata!A16 || %36
w: nis, no- vi|lu- * * * * *|* mi- nis,|no- vi|lu- * * * * mi-|nis.|
"^2. pars" F8 D8 | C4 F6 E2 F2 D2 | E4 E6 D2 E2 F2 | G4 D4 D4 E4 | F6 G2 A4 B4- | B4 A4 G8 | %42
w: Sub- si-|stit Vir- * * *|go, Vir- * * *|go, ad- du- cens|ma- ni- bus fi-|* li- um|
 z8 F8 | c4 c4 d6 d2 | c4 c6 B2 G2 B2 | A4 G4 C4 c4- | c4 =B4 c8 | d12 c4 | c8 z4 A4- | %49
w: an-|te lu- ci- fe-|rum ge- * * *|* ni- tum, ge-|* ni- tum,|ge- ni-|tum, ge-|
 A2 G2 A2 F2 G4 G4 | A8 z4 A4- | A4 B4 A6 A2 | G4 G6 A2 B4- | B2 A2 A8 G4 | A8 z8 | z8 z4 A4 | %56
w: * * * * * ni-|tum, quem|_ ac- ci- pi-|ens Si- * *|* * * me-|on|in|
 B4 d4 ^c8 | d8 z4 A2 c2 | B4 G4 A6 G2 | E4 C2 F2 E4 C4 | E3 D E3 F G3 A B4- | B2 A2 G8 ^F4 | %62
w: ul- nas su-|as, præ- di-|ca- vit po- pu-|lis, præ- di- ca- vit|po- * * * * * *|* * * pu-|
 G8 G6 G2 | G8 z4 G4- | G2 A2 G4 A8 | ^F4 A6 B2 A4 | B8 A2 A4 G2 | ^F2 G3 =F D2 E4 ^C4 | %68
w: lis, po- pu-|lis, Do-|* mi- num e-|um, Do- mi- num|e- um, Do- mi-|num e- * * * um|
 z4 A4 G4 B4- | B2 A2 c4 A2 B2 F2 G2 | A8 z4 A4 | G2 A2 F4 E8 | z4 A4 G4 F4 | B12 A4 | %74
w: es- se vi-|* tæ et mor- * * *|tis, et|mor- * * tis|et Sal- va-|to- rem|
 G4 F4 G2 A2 B2 G2 | A4 A8 G4 | A8 z4 A4 | G4 C4 c8- | c4 B4 A2 B2 c4- | c4 =B4 c4 z2 c2 | %80
w: mun- * * * * *|di, mun- *|di, et|Sal- va- to-|* rem mun- * *|* * di, et|
 B4 A4 d8 | c4 B6 A2 F2 G2 | A8 z4 F4 | E4 D4 c8 | B4 A6 F2 D2 E2 | F2 D2 F8 E2 D2 | E4 F8 E4 | %87
w: Sal- va- to-|rem mun- * * *|di, et|Sal- va- to-|rem mun- * * *|||
 !fermata!F16 |] %88
w: di.|
V:2
 [Fb]2 |[M:4/2] z16 | z8 c8 | f8 e4 f4- | f2 _e2 c4 d4 B4 | f6 ed e2 f2 g4- | g2 f2 f8 e4 | %7
w: ||A-|dor- na tha-|* la- mum tu- um|Si- * * * * *||
 f4 d4 c2 B2 A2 G2 | F4 f4 e2 d2 e4 | f8 g8 | a6 g2 f4 e4 | f4 d4 e8 | z4 d4 e6 d2 | e4 g4 ^f8 | %14
w: on, et sus- ci- * *|pe, et sus- ci- pe|Re- gem|Chri- * * *|* * stum,|Am- ple- cte-|re Ma- ri-|
 g4 _e4 d4 B4 | f4 d4 z4 f4 | e4 c4 g8 | d4 f8 e4 | f8 z4 f4- | f4 c4 d4 B4 | z4 c8 F4 | %21
w: am, quæ est cæ-|le- stis, quæ|est cæ- le-|stis por- *|ta: i-|* psa e- nim|por- tat|
 B4 G4 c6 d2 | e4 f8 e4 | f2 g2 a6 g2 f4- | f4 e4 f4 z2 c2- | c2 d2 e4 g4 c4 | d6 e2 f6 e2 | %27
w: Re- gem glo- ri-|æ, no- vi|lu- * * * *|* mi- nis, glo-|* ri- æ, no- vi|lu- * * mi-|
 d8 z4 f4- | f2 g2 a4 b4 f4 | b6 a2 g6 f2 | e8 f6 e2 | d8 z4 g4- | g4 c8 f4- | %33
w: nis, glo-|* ri- æ no- vi|lu- * * mi-|nis, lu- mi-|nis, no-|* vi lu-|
 f2 e2 d2 c2 d2 e2 f4- | f2 e2 g2 f2 e2 f2 d2 e2 | !fermata!f16 || z16 | z16 | c8 A8 | %39
w: |* * * * * * * mi-|nis.|||Sub- si-|
 G4 B6 A2 B2 G2 | A8 z4 d4 | d4 f4 e6 f2 | g4 a8 f4 | e4 g8 b4 | a8 z8 | z16 | f8 g4 a4 | %47
w: stit Vir- * * *|go, ad-|du- cens ma- ni-|bus fi- li-|um, fi- li-|um,||an- te lu-|
 b6 b2 a4 a4- | a2 g2 a2 f2 g4 f4 | e4 f8 e4 | f8 z4 c4- | c4 d4 c6 f2 | e8 z4 d4- | %53
w: ci- fe- rum ge-|* * * * * ni-|tum, ge- ni-|tum, quem|_ ac- ci- pi-|ens Si-|
 d2 e2 f6 e2 d4- | d4 ^c4 d4 z2 d2 | e4 g4 ^f8 | g8 z4 e2 g2 | f4 d4 f6 c2 | d4 e2 g2 f4 c2 e2- | %59
w: |* me- on in|ul- nas su-|as præ- di-|ca- vit po- pu-|lis, præ- di- ca- vit po-|
 e2 d^c e2 d2 c4 A4- | A2 A2 c4 G4 d4- | d4 b4 a8 | z4 d6 e2 d4 | e4 c4 z4 e4- | e2 f2 e4 z8 | %65
w: * * * * pu- lis, præ-|* di- ca- vit po-|* pu- lis,|Do- mi- num|e- um, Do-|* mi- num,|
 z4 ^f6 g2 f4 | g4 d4 z8 | z4 d4 ^c4 e4- | e2 d2 f4 e4 d4 | f8 z4 d4 | c4 e6 d2 f4 | e4 d4 ^c8 | %72
w: Do- mi- num|e- um|es- se vi-|* tæ et mor- *|tis, es-|se vi- tæ et|mor- * tis,|
 d8 d8- | d8 d8 | z4 d4 c4 B4 | f12 e4 | d4 c4 d2 e2 f2 d2 | e16- | e8 z4 f4 | e4 d4 a8 | %80
w: et mor-|* tis,|et Sal- va-|to- rem|mun- * * * * *|di,|_ et|Sal- va- to-|
 g4 f6 e2 f2 d2 | e2 f2 g4 f4 d4 | f4 e4 d8 | z4 B4 A4 G4 | d8 c4 B4- | B2 A2 F2 G2 A2 F2 A4- | %86
w: rem mun- * * *|* * * di, mun-|* * di,|et Sal- va-|to- rem mun-||
 A4 G2 F2 G8 | !fermata!A16 |] %88
w: |di.|
V:3
 [B,g]2 |[M:4/2] z16 | z16 | z16 | F8 B8 | A4 c6 B2 G4 | A4 F4 c8 | F4 f4 e2 d2 e4 | f4 d4 c6 B2 | %9
w: ||||A- dor-|na tha- la- mum|tu- um Si-|on, et sus- ci- pe,|Re- gem Chri- *|
 A2 G2 A2 F2 c8 | z4 F6 G2 A4- | A4 B4 c8 | z4 G4 c6 =B2 | c4 G4 d6 c2 | =B4 c4 G8 | z4 B4 A4 F4 | %16
w: * * * * stum,|Re- gem Chri-|* * stum,|Am- ple- cte-|re Ma- ri- *|* * am,|quæ est cæ-|
 c8 G4 B4- | B4 A4 G8 | F16- | F8 z4 G4- | G4 E4 F4 D4 | z8 z4 c4- | c4 A4 B4 G4 | A6 B2 c4 d4- | %24
w: le- stis por-||ta:|_ i-|* psa e- nim|por-|* tat Re- gem|glo- ri- æ, no-|
 d2 B2 c3 c F8 | z4 c6 d2 e4 | f4 B4 d6 c2 | B6 A2 G4 F4 | F8 B6 A2 | G16 | c8 A4 B4- | %31
w: * vi lu- mi- nis,|glo- ri- æ,|no- vi lu- *|* * * mi-|nis, lu- mi-|nis,|no- vi lu-|
 B2 A2 G2 A2 B4 G4 | c8 A4 F4 | f6 e2 d2 c2 B2 A2 | G12 G4 | !fermata!F16 || z16 | F8 D8 | %38
w: * * * * * mi-|nis, no- vi|lu- * * * * *|* mi-|nis.||Sub- si-|
 C4 c6 B2 c2 A2 | B2 A2 G2 F2 G8 | F8 z4 G4 | B4 F4 c6 d2 | e4 f8 d4 | c8 B8 | f4 f4 g6 g2 | %45
w: stit Vir- * * *||go, ad-|du- cens ma- ni-|bus fi- li-|um an-|te lu- ci- fe-|
 f4 e6 d2 e2 c2 | d6 d2 c4 F4 | B3 c d2 e2 f6 f2 | e4 f6 e2 f2 d2 | c4 F4 c8 | z8 F8- | %51
w: rum gen- * * *|* ni- tum, an-|te _ _ lu- ci- fe-|rum ge- * * *|* ni- tum,|quem|
 F4 D4 F6 F2 | C8 G8- | G4 A4 B6 B2 | A4 z2 A2 B4 d4 | ^c8 d4 z2 D2 | G4 B4 A8 | D8 z4 F2 A2 | %58
w: _ ac- ci- pi-|ens Si-|* * * me-|on in ul- nas|su- as, in|ul- nas su-|as præ- di-|
 G4 C4 F6 G2 | A16 | z4 A2 c2 B4 G4 | B6 c2 d8 | z4 =B6 c2 B4 | c8 C8 | z4 c6 d2 ^c4 | d8 D8 | %66
w: ca- vit po- pu-|lis,|præ- di- ca- vit|po- pu- lis|Do- mi- num|e- um,|Do- mi- num|e- um|
 z4 G4 ^F4 A4- | A2 G2 B4 A6 G2 | F4 D4 z4 G4 | F4 A6 G2 B4 | A6 G2 F4 D4 | z8 z4 A4 | G4 F4 B8- | %73
w: es- se vi-|* tæ et mor- *|* tis, es-|se vi- tæ et|mor- * * tis,|et|Sal- va- to-|
 B4 A4 G4 F4 | E4 D4 z4 G4 | F4 D4 F4 C4 | z4 A4 G4 F4 | c12 B4 | A4 G4 F8 | G8 F8 | z8 z4 B4 | %81
w: * rem mun- *|* di, et|Sal- va- to- rem,|et Sal- va-|to- rem|mun- * *|* di,|et|
 A4 G4 d8- | d4 c4 B6 A2 | G4 z2 G2 F4 E4 | D6 E2 F4 B,4 | D16 | C16 | !fermata!F16 |] %88
w: Sal- va- to-|* rem mun- *|di, et Sal- va-|to- * * rem|mun-||di.|

